;FLAVOR:Marlin
;TIME:35021
;Filament used: 36.3924m
;Layer height: 0.28
;MINX:54.75
;MINY:33
;MINZ:0.28
;MAXX:245.25
;MAXY:267
;MAXZ:17.08
;TARGET_MACHINE.NAME:Creality CR-10S Pro
;Generated with Cura_SteamEngine 5.9.0
M140 S50
M105
M190 S50
M104 S200
M105
M109 S200
M82 ;absolute extrusion mode
M201 X500.00 Y500.00 Z100.00 E5000.00 ;Setup machine max acceleration
M203 X500.00 Y500.00 Z10.00 E50.00 ;Setup machine max feedrate
M204 P500.00 R1000.00 T500.00 ;Setup Print/Retract/Travel acceleration
M205 X8.00 Y8.00 Z0.40 E5.00 ;Setup Jerk
M220 S100 ;Reset Feedrate
M221 S100 ;Reset Flowrate

G28 ;Home
G29 ;Auto bed Level
M420 S1 ;Save and use mesh

G92 E0 ;Reset Extruder
G1 Z2.0 F3000 ;Move Z Axis up
G1 X10.1 Y20 Z0.28 F5000.0 ;Move to start position
G1 X10.1 Y200.0 Z0.28 F1500.0 E15 ;Draw the first line
G1 X10.4 Y200.0 Z0.28 F5000.0 ;Move to side a little
G1 X10.4 Y20 Z0.28 F1500.0 E30 ;Draw the second line
G92 E0 ;Reset Extruder
G1 Z2.0 F3000 ;Move Z Axis up

G92 E0
G92 E0
G1 F2700 E-5
;LAYER_COUNT:61
;LAYER:0
M107
G0 F6000 X54.962 Y64.8 Z0.28
;TYPE:SKIRT
G1 F2700 E0
G1 F1200 X54.962 Y62.289 E0.11692
G1 X54.89 Y59.751 E0.23515
G1 X54.774 Y57.557 E0.33745
G1 X54.75 Y56.671 E0.37873
G1 X54.751 Y51.538 E0.61774
G1 X54.763 Y50.814 E0.65146
G1 X54.822 Y49.84 E0.69689
G1 X54.969 Y48.879 E0.74216
G1 X55.2 Y47.932 E0.78755
G1 X55.5 Y47.044 E0.8312
G1 X55.906 Y46.119 E0.87823
G1 X56.341 Y45.327 E0.92031
G1 X56.923 Y44.461 E0.96889
G1 X57.537 Y43.704 E1.01428
G1 X58.215 Y43.006 E1.05959
G1 X58.952 Y42.37 E1.10492
G1 X59.743 Y41.8 E1.15032
G1 X60.519 Y41.338 E1.19237
G1 X61.461 Y40.885 E1.24104
G1 X62.347 Y40.553 E1.2851
G1 X63.71 Y40.202 E1.35064
G1 X65.877 Y39.791 E1.45334
G1 X68.425 Y39.24 E1.57473
G1 X70.8 Y38.654 E1.68864
G1 X73.254 Y37.978 E1.80716
G1 X75.66 Y37.238 E1.92438
G1 X78.038 Y36.433 E2.04128
G1 X80.415 Y35.553 E2.1593
G1 X82.75 Y34.612 E2.27653
G1 X83.685 Y34.207 E2.32397
G1 X84.578 Y33.836 E2.369
G1 X85.495 Y33.505 E2.4144
G1 X86.436 Y33.259 E2.45969
G1 X87.4 Y33.094 E2.50523
G1 X88.455 Y33.013 E2.5545
G1 X89.062 Y33 E2.58277
G1 X233.554 Y33 E9.31092
G1 X234.434 Y33.013 E9.3519
G1 X235.406 Y33.072 E9.39724
G1 X236.369 Y33.218 E9.4426
G1 X237.316 Y33.449 E9.48799
G1 X238.204 Y33.749 E9.53163
G1 X239.096 Y34.139 E9.57696
G1 X239.979 Y34.626 E9.62392
G1 X240.73 Y35.128 E9.66598
G1 X241.545 Y35.786 E9.71476
G1 X242.243 Y36.464 E9.76007
G1 X242.879 Y37.201 E9.8054
G1 X243.449 Y37.991 E9.85076
G1 X243.911 Y38.767 E9.89281
G1 X244.365 Y39.709 E9.9415
G1 X244.694 Y40.587 E9.98516
G1 X244.963 Y41.559 E10.03212
G1 X245.14 Y42.525 E10.07785
G1 X245.235 Y43.655 E10.13066
G1 X245.25 Y44.33 E10.1621
G1 X245.249 Y139.462 E14.59184
G1 X245.237 Y140.209 E14.62663
G1 X245.2 Y140.951 E14.66122
G1 X244.963 Y143.689 E14.78919
G1 X244.825 Y146.175 E14.90513
G1 X244.753 Y148.718 E15.02359
G1 X244.753 Y151.229 E15.14051
G1 X244.824 Y153.723 E15.25669
G1 X244.967 Y156.233 E15.37375
G1 X245.2 Y159.079 E15.50672
G1 X245.235 Y159.673 E15.53443
G1 X245.25 Y160.33 E15.56503
G1 X245.249 Y255.4 E19.99188
G1 X245.238 Y256.163 E20.02742
G1 X245.181 Y257.136 E20.0728
G1 X245.036 Y258.099 E20.11815
G1 X244.807 Y259.045 E20.16347
G1 X244.496 Y259.969 E20.20887
G1 X244.104 Y260.86 E20.25419
G1 X243.636 Y261.712 E20.29946
G1 X243.114 Y262.493 E20.3432
G1 X242.481 Y263.278 E20.39016
G1 X241.856 Y263.929 E20.43218
G1 X241.067 Y264.617 E20.48092
G1 X240.307 Y265.167 E20.52461
G1 X239.44 Y265.684 E20.57161
G1 X238.562 Y266.106 E20.61697
G1 X237.651 Y266.448 E20.66228
G1 X236.712 Y266.709 E20.70766
G1 X235.746 Y266.887 E20.7534
G1 X234.595 Y266.985 E20.80719
G1 X233.92 Y267 E20.83863
G1 X201.299 Y266.999 E22.3576
G1 X200.581 Y266.989 E22.39104
G1 X199.998 Y266.964 E22.41821
G1 X198.585 Y266.866 E22.48416
G1 X196.37 Y266.731 E22.58749
G1 X193.87 Y266.648 E22.70397
G1 X191.342 Y266.638 E22.82168
G1 X188.811 Y266.698 E22.93957
G1 X186.316 Y266.828 E23.0559
G1 X184.554 Y266.96 E23.13818
G1 X184.044 Y266.987 E23.16196
G1 X183.42 Y267 E23.19102
G1 X149.3 Y266.999 E24.77979
G1 X148.58 Y266.989 E24.81332
G1 X148.113 Y266.97 E24.83509
G1 X145.108 Y266.794 E24.97525
G1 X142.55 Y266.721 E25.09441
G1 X140.06 Y266.721 E25.21036
G1 X137.517 Y266.792 E25.32881
G1 X134.352 Y266.974 E25.47643
G1 X133.707 Y266.996 E25.50649
G1 X124.299 Y266.999 E25.94456
G1 X123.581 Y266.988 E25.978
G1 X122.593 Y266.928 E26.02409
G1 X121.629 Y266.782 E26.06949
G1 X120.682 Y266.551 E26.11488
G1 X119.826 Y266.263 E26.15693
G1 X118.87 Y265.844 E26.20553
G1 X118.017 Y265.373 E26.25091
G1 X117.21 Y264.828 E26.29625
G1 X116.455 Y264.215 E26.34154
G1 X115.754 Y263.537 E26.38695
G1 X115.118 Y262.799 E26.43231
G1 X114.551 Y262.009 E26.47759
G1 X114.069 Y261.199 E26.52148
G1 X113.562 Y260.121 E26.57695
G1 X112.669 Y257.918 E26.68764
G1 X111.643 Y255.568 E26.80704
G1 X110.598 Y253.347 E26.92133
G1 X109.452 Y251.081 E27.03958
G1 X108.24 Y248.842 E27.15813
G1 X106.985 Y246.672 E27.27485
G1 X105.679 Y244.558 E27.39056
G1 X104.287 Y242.439 E27.50861
G1 X102.841 Y240.372 E27.62608
G1 X101.342 Y238.344 E27.7435
G1 X99.795 Y236.376 E27.86007
G1 X98.203 Y234.467 E27.97581
G1 X96.495 Y232.53 E28.09606
G1 X94.799 Y230.713 E28.2118
G1 X93.034 Y228.924 E28.32882
G1 X91.218 Y227.187 E28.44584
G1 X89.343 Y225.492 E28.56353
G1 X87.404 Y223.837 E28.68223
G1 X85.472 Y222.279 E28.7978
G1 X83.449 Y220.742 E28.91611
G1 X82.212 Y219.83 E28.98767
G1 X81.455 Y219.216 E29.03306
G1 X80.757 Y218.538 E29.07837
G1 X80.121 Y217.801 E29.1237
G1 X79.552 Y217.011 E29.16903
G1 X79.089 Y216.235 E29.21111
G1 X78.637 Y215.294 E29.25972
G1 X78.296 Y214.382 E29.30505
G1 X78.037 Y213.442 E29.35046
G1 X77.86 Y212.475 E29.39623
G1 X77.763 Y211.295 E29.45136
G1 X77.75 Y210.688 E29.47963
G1 X77.75 Y176.27 E31.08228
G1 X77.713 Y173.676 E31.20308
G1 X77.604 Y171.13 E31.32174
G1 X77.429 Y168.65 E31.43751
G1 X77.184 Y166.183 E31.55295
G1 X76.856 Y163.62 E31.67326
G1 X76.469 Y161.157 E31.78936
G1 X76.013 Y158.703 E31.90558
G1 X75.477 Y156.22 E32.02386
G1 X74.88 Y153.781 E32.14079
G1 X74.212 Y151.348 E32.25827
G1 X73.488 Y148.988 E32.37322
G1 X72.663 Y146.543 E32.49337
G1 X71.798 Y144.195 E32.60989
G1 X70.874 Y141.898 E32.72518
G1 X69.847 Y139.539 E32.84498
G1 X68.776 Y137.253 E32.96253
G1 X67.657 Y135.031 E33.07837
G1 X66.466 Y132.829 E33.19494
G1 X65.202 Y130.637 E33.31277
G1 X63.866 Y128.466 E33.43147
G1 X62.506 Y126.389 E33.54707
G1 X61.065 Y124.32 E33.66447
G1 X59.575 Y122.304 E33.7812
G1 X57.902 Y120.171 E33.90743
G1 X57.184 Y119.28 E33.96071
G1 X56.608 Y118.495 E34.00605
G1 X56.121 Y117.693 E34.04974
G1 X55.677 Y116.787 E34.09672
G1 X55.328 Y115.878 E34.14206
G1 X55.059 Y114.942 E34.18741
G1 X54.886 Y114.056 E34.22944
G1 X54.765 Y112.724 E34.29172
G1 X54.75 Y112.067 E34.32232
G1 X54.751 Y106.946 E34.56078
G1 X54.77 Y105.91 E34.60903
G1 X54.841 Y104.314 E34.68342
G1 X54.91 Y101.694 E34.80546
G1 X54.905 Y99.233 E34.92005
G1 X54.756 Y95.033 E35.11575
G1 X54.751 Y89.546 E35.37124
G1 X54.776 Y88.425 E35.42345
G1 X54.884 Y86.335 E35.5209
G1 X54.956 Y83.772 E35.6403
G1 X54.956 Y81.26 E35.75726
G1 X54.883 Y78.718 E35.87568
G1 X54.773 Y76.642 E35.97248
G1 X54.75 Y75.762 E36.01347
G1 X54.751 Y70.64 E36.25197
G1 X54.77 Y69.62 E36.29948
G1 X54.89 Y67.334 E36.40607
G1 X54.962 Y64.8 E36.52411
G0 F6000 X55.362 Y64.811
G1 F1200 X55.362 Y62.289 E36.64155
G1 X55.29 Y59.74 E36.76029
G1 X55.174 Y57.546 E36.86259
G1 X55.15 Y56.671 E36.90335
G1 X55.151 Y51.544 E37.14208
G1 X55.162 Y50.838 E37.17496
G1 X55.218 Y49.9 E37.21872
G1 X55.358 Y48.973 E37.26237
G1 X55.579 Y48.06 E37.30611
G1 X55.867 Y47.204 E37.34817
G1 X56.257 Y46.312 E37.3935
G1 X56.692 Y45.52 E37.43557
G1 X57.234 Y44.712 E37.48088
G1 X57.824 Y43.982 E37.52458
G1 X58.477 Y43.308 E37.56828
G1 X59.186 Y42.694 E37.61196
G1 X59.948 Y42.144 E37.65571
G1 X60.724 Y41.682 E37.69777
G1 X61.601 Y41.26 E37.74309
G1 X62.487 Y40.928 E37.78714
G1 X63.785 Y40.595 E37.84954
G1 X65.958 Y40.183 E37.95253
G1 X68.51 Y39.631 E38.07411
G1 X70.906 Y39.04 E38.18902
G1 X73.36 Y38.363 E38.30756
G1 X75.788 Y37.617 E38.42583
G1 X78.166 Y36.812 E38.54273
G1 X80.565 Y35.924 E38.66185
G1 X82.9 Y34.983 E38.77907
G1 X83.838 Y34.576 E38.82668
G1 X84.714 Y34.212 E38.87085
G1 X85.597 Y33.892 E38.91459
G1 X86.504 Y33.653 E38.95826
G1 X87.431 Y33.493 E39.00207
G1 X88.464 Y33.413 E39.05031
G1 X89.071 Y33.4 E39.07858
G1 X233.548 Y33.4 E45.80604
G1 X234.41 Y33.412 E45.84618
G1 X235.347 Y33.468 E45.88989
G1 X236.275 Y33.607 E45.93358
G1 X237.188 Y33.828 E45.97732
G1 X238.044 Y34.116 E46.01938
G1 X238.936 Y34.506 E46.06471
G1 X239.757 Y34.959 E46.10837
G1 X240.508 Y35.461 E46.15043
G1 X241.267 Y36.073 E46.19583
G1 X241.941 Y36.726 E46.23953
G1 X242.555 Y37.435 E46.2832
G1 X243.105 Y38.196 E46.32693
G1 X243.567 Y38.972 E46.36898
G1 X243.99 Y39.849 E46.41432
G1 X244.319 Y40.727 E46.45798
G1 X244.57 Y41.632 E46.50171
G1 X244.741 Y42.559 E46.5456
G1 X244.836 Y43.689 E46.5984
G1 X244.85 Y44.33 E46.62826
G1 X244.849 Y139.455 E51.05768
G1 X244.837 Y140.189 E51.09186
G1 X244.801 Y140.917 E51.1258
G1 X244.565 Y143.655 E51.25377
G1 X244.425 Y146.164 E51.37078
G1 X244.353 Y148.707 E51.48924
G1 X244.353 Y151.229 E51.60667
G1 X244.424 Y153.734 E51.72336
G1 X244.568 Y156.267 E51.8415
G1 X244.691 Y157.728 E51.90977
G1 X244.697 Y157.882 E51.91695
G1 X244.801 Y159.102 E51.97396
G1 X244.835 Y159.682 E52.00102
G1 X244.85 Y160.33 E52.0312
G1 X244.849 Y255.395 E56.45782
G1 X244.839 Y256.14 E56.49251
G1 X244.785 Y257.077 E56.53622
G1 X244.647 Y258.006 E56.57995
G1 X244.428 Y258.918 E56.62362
G1 X244.13 Y259.808 E56.66733
G1 X243.753 Y260.668 E56.71105
G1 X243.303 Y261.49 E56.75469
G1 X242.781 Y262.271 E56.79843
G1 X242.192 Y263.001 E56.84211
G1 X241.567 Y263.652 E56.88413
G1 X240.832 Y264.293 E56.92954
G1 X240.072 Y264.843 E56.97322
G1 X239.266 Y265.324 E57.01693
G1 X238.421 Y265.732 E57.06062
G1 X237.543 Y266.063 E57.10431
G1 X236.639 Y266.316 E57.14803
G1 X235.712 Y266.488 E57.19193
G1 X234.561 Y266.586 E57.24572
G1 X233.92 Y266.6 E57.27557
G1 X201.305 Y266.599 E58.79426
G1 X200.598 Y266.589 E58.82719
G1 X200.026 Y266.565 E58.85385
G1 X198.613 Y266.467 E58.9198
G1 X196.383 Y266.331 E59.02383
G1 X193.883 Y266.248 E59.1403
G1 X191.335 Y266.238 E59.25895
G1 X188.802 Y266.298 E59.37693
G1 X186.286 Y266.429 E59.49425
G1 X184.533 Y266.561 E59.5761
G1 X184.036 Y266.587 E59.59928
G1 X183.42 Y266.6 E59.62797
G1 X149.306 Y266.599 E61.21646
G1 X148.596 Y266.589 E61.24952
G1 X148.136 Y266.571 E61.27096
G1 X145.119 Y266.394 E61.41168
G1 X142.561 Y266.321 E61.53084
G1 X140.049 Y266.321 E61.64781
G1 X137.506 Y266.392 E61.76627
G1 X134.338 Y266.574 E61.91403
G1 X133.707 Y266.596 E61.94343
G1 X124.305 Y266.599 E62.38123
G1 X123.605 Y266.589 E62.41382
G1 X122.652 Y266.532 E62.45828
G1 X121.723 Y266.393 E62.50202
G1 X120.81 Y266.172 E62.54576
G1 X119.954 Y265.884 E62.58781
G1 X119.063 Y265.494 E62.6331
G1 X118.24 Y265.041 E62.67685
G1 X117.462 Y264.517 E62.72053
G1 X116.733 Y263.927 E62.76419
G1 X116.057 Y263.275 E62.80793
G1 X115.443 Y262.565 E62.85164
G1 X114.895 Y261.804 E62.8953
G1 X114.413 Y260.994 E62.93919
G1 X113.933 Y259.971 E62.99181
G1 X113.04 Y257.768 E63.1025
G1 X112.01 Y255.408 E63.2224
G1 X110.955 Y253.166 E63.33778
G1 X109.809 Y250.9 E63.45602
G1 X108.592 Y248.652 E63.57505
G1 X107.331 Y246.472 E63.69232
G1 X106.013 Y244.338 E63.80911
G1 X104.621 Y242.219 E63.92717
G1 X103.163 Y240.134 E64.04564
G1 X101.663 Y238.106 E64.16309
G1 X100.102 Y236.12 E64.28071
G1 X98.503 Y234.202 E64.39699
G1 X96.795 Y232.265 E64.51724
G1 X95.084 Y230.432 E64.634
G1 X93.319 Y228.643 E64.75102
G1 X91.486 Y226.89 E64.86912
G1 X89.611 Y225.195 E64.98682
G1 X87.664 Y223.533 E65.10602
G1 X85.714 Y221.96 E65.22268
G1 X83.691 Y220.423 E65.34098
G1 X82.463 Y219.519 E65.41198
G1 X81.733 Y218.929 E65.45569
G1 X81.059 Y218.276 E65.49939
G1 X80.445 Y217.567 E65.54306
G1 X79.896 Y216.806 E65.58675
G1 X79.433 Y216.03 E65.62883
G1 X79.011 Y215.153 E65.67415
G1 X78.681 Y214.275 E65.71783
G1 X78.43 Y213.37 E65.76156
G1 X78.259 Y212.442 E65.8055
G1 X78.163 Y211.286 E65.85951
G1 X78.15 Y210.679 E65.88778
G1 X78.15 Y176.27 E67.49001
G1 X78.113 Y173.67 E67.61109
G1 X78.004 Y171.113 E67.73026
G1 X77.828 Y168.622 E67.84654
G1 X77.581 Y166.132 E67.96305
G1 X77.253 Y163.569 E68.08337
G1 X76.864 Y161.095 E68.19999
G1 X76.406 Y158.63 E68.31673
G1 X75.866 Y156.125 E68.43605
G1 X75.269 Y153.686 E68.55298
G1 X74.597 Y151.242 E68.671
G1 X73.867 Y148.86 E68.78701
G1 X73.042 Y146.415 E68.90717
G1 X72.173 Y144.057 E69.02418
G1 X71.241 Y141.738 E69.14056
G1 X70.214 Y139.379 E69.26036
G1 X69.138 Y137.083 E69.37843
G1 X68.014 Y134.851 E69.4948
G1 X66.813 Y132.629 E69.61241
G1 X65.549 Y130.437 E69.73023
G1 X64.207 Y128.256 E69.84948
G1 X62.841 Y126.17 E69.96558
G1 X61.387 Y124.082 E70.08406
G1 X59.897 Y122.066 E70.20079
G1 X58.217 Y119.924 E70.32755
G1 X57.506 Y119.043 E70.38026
G1 X56.95 Y118.287 E70.42396
G1 X56.463 Y117.485 E70.46765
G1 X56.05 Y116.643 E70.51132
G1 X55.712 Y115.767 E70.55504
G1 X55.452 Y114.865 E70.59875
G1 X55.279 Y113.979 E70.64079
G1 X55.165 Y112.715 E70.69988
G1 X55.15 Y112.067 E70.73007
G1 X55.151 Y106.953 E70.9682
G1 X55.17 Y105.928 E71.01593
G1 X55.241 Y104.332 E71.09032
G1 X55.31 Y101.704 E71.21273
G1 X55.305 Y99.232 E71.32784
G1 X55.156 Y95.033 E71.52349
G1 X55.151 Y89.555 E71.77857
G1 X55.175 Y88.446 E71.83022
G1 X55.284 Y86.346 E71.92813
G1 X55.356 Y83.783 E72.04753
G1 X55.356 Y81.26 E72.16501
G1 X55.283 Y78.707 E72.28393
G1 X55.173 Y76.631 E72.38074
G1 X55.15 Y75.762 E72.42122
G1 X55.151 Y70.647 E72.65939
G1 X55.169 Y69.641 E72.70624
G1 X55.29 Y67.345 E72.8133
G1 X55.362 Y64.811 E72.93134
G0 F6000 X55.762 Y64.822
G1 F1200 X55.762 Y62.289 E73.04929
G1 X55.69 Y59.729 E73.16854
G1 X55.574 Y57.535 E73.27085
G1 X55.55 Y56.671 E73.31109
G1 X55.551 Y51.55 E73.54955
G1 X55.561 Y50.861 E73.58163
G1 X55.614 Y49.959 E73.62371
G1 X55.747 Y49.066 E73.66575
G1 X55.958 Y48.188 E73.7078
G1 X56.246 Y47.332 E73.74985
G1 X56.608 Y46.505 E73.79189
G1 X57.043 Y45.713 E73.83396
G1 X57.545 Y44.963 E73.87599
G1 X58.112 Y44.26 E73.91804
G1 X58.739 Y43.61 E73.96009
G1 X59.421 Y43.018 E74.00215
G1 X60.153 Y42.488 E74.04423
G1 X60.929 Y42.026 E74.08628
G1 X61.742 Y41.634 E74.12831
G1 X62.587 Y41.315 E74.17036
G1 X63.859 Y40.988 E74.23152
G1 X66.043 Y40.574 E74.33503
G1 X68.595 Y40.022 E74.45661
G1 X71.013 Y39.426 E74.57257
G1 X73.467 Y38.748 E74.69112
G1 X75.916 Y37.996 E74.81041
G1 X78.294 Y37.191 E74.92731
G1 X80.704 Y36.299 E75.04697
G1 X83.06 Y35.35 E75.16524
G1 X83.991 Y34.945 E75.21252
G1 X84.851 Y34.588 E75.25588
G1 X85.7 Y34.279 E75.29795
G1 X86.573 Y34.047 E75.34001
G1 X87.462 Y33.892 E75.38203
G1 X88.473 Y33.813 E75.42925
G1 X89.08 Y33.8 E75.45752
G1 X233.543 Y33.8 E82.18432
G1 X234.387 Y33.811 E82.22362
G1 X235.289 Y33.864 E82.2657
G1 X236.182 Y33.996 E82.30773
G1 X237.06 Y34.207 E82.34978
G1 X237.916 Y34.495 E82.39183
G1 X238.743 Y34.857 E82.43387
G1 X239.535 Y35.292 E82.47594
G1 X240.286 Y35.794 E82.51801
G1 X240.989 Y36.361 E82.56006
G1 X241.639 Y36.988 E82.60212
G1 X242.231 Y37.67 E82.64417
G1 X242.761 Y38.401 E82.68621
G1 X243.223 Y39.177 E82.72826
G1 X243.616 Y39.99 E82.77031
G1 X243.934 Y40.835 E82.81235
G1 X244.177 Y41.705 E82.85441
G1 X244.342 Y42.593 E82.89647
G1 X244.437 Y43.723 E82.94927
G1 X244.45 Y44.33 E82.97755
G1 X244.449 Y139.449 E87.40668
G1 X244.438 Y140.169 E87.44021
G1 X244.402 Y140.883 E87.4735
G1 X244.167 Y143.621 E87.60146
G1 X244.025 Y146.153 E87.71955
G1 X243.953 Y148.696 E87.83801
G1 X243.953 Y151.229 E87.95596
G1 X244.024 Y153.745 E88.07316
G1 X244.169 Y156.301 E88.19237
G1 X244.291 Y157.744 E88.2598
G1 X244.298 Y157.916 E88.26782
