;FLAVOR:Marlin
;TIME:35311
;Filament used: 35.0233m
;Layer height: 0.28
;MINX:19.75
;MINY:0
;MINZ:0.28
;MAXX:210.25
;MAXY:230
;MAXZ:17.08
;TARGET_MACHINE.NAME:Creality Ender-3 v2 Neo
;Generated with Cura_SteamEngine 5.9.0
M140 S60
M105
M190 S60
M104 S200
M105
M109 S200
M82 ;absolute extrusion mode
G92 E0 ;Reset Extruder
G28 ;Home
G1 Z2.0 F3000 ;Move Z Axis up
G1 X10.1 Y20 Z0.28 F5000.0 ;Move to start position
G1 X10.1 Y200.0 Z0.28 F1500.0 E15 ;Draw the first line
G1 X10.4 Y200.0 Z0.28 F5000.0 ;Move to side a little
G1 X10.4 Y20 Z0.28 F1500.0 E30 ;Draw the second line
G92 E0 ;Reset Extruder
G1 Z2.0 F3000 ;Move Z Axis up
G92 E0
G92 E0
G1 F1500 E-4
;LAYER_COUNT:61
;LAYER:0
M107
G0 F6000 X46.787 Y0.00 Z0.28
;TYPE:SKIRT
G1 F1500 E0
G1 F1200 X45.415 Y0.553 E0.06888
G1 X43.038 Y1.433 E0.1869
G1 X40.66 Y2.238 E0.30381
G1 X38.253 Y2.978 E0.42106
G1 X35.799 Y3.656 E0.53961
G1 X33.425 Y4.24 E0.65345
G1 X30.877 Y4.791 E0.77484
G1 X28.71 Y5.202 E0.87754
G1 X27.347 Y5.553 E0.94308
G1 X26.461 Y5.885 E0.98714
G1 X25.519 Y6.338 E1.03581
G1 X24.743 Y6.8 E1.07786
G1 X23.952 Y7.37 E1.12326
G1 X23.215 Y8.006 E1.16859
G1 X22.537 Y8.704 E1.2139
G1 X21.923 Y9.461 E1.25929
G1 X21.341 Y10.327 E1.30787
G1 X20.906 Y11.119 E1.34995
G1 X20.5 Y12.044 E1.39699
G1 X20.2 Y12.932 E1.44063
G1 X19.969 Y13.879 E1.48602
G1 X19.822 Y14.84 E1.53129
G1 X19.763 Y15.814 E1.57673
G1 X19.751 Y16.538 E1.61044
G1 X19.75 Y21.671 E1.84946
G1 X19.774 Y22.557 E1.89073
G1 X19.89 Y24.751 E1.99303
G1 X19.962 Y27.289 E2.11126
G1 X19.962 Y29.8 E2.22818
G1 X19.89 Y32.334 E2.34623
G1 X19.77 Y34.62 E2.45282
G1 X19.751 Y35.64 E2.50032
G1 X19.75 Y40.762 E2.73882
G1 X19.773 Y41.642 E2.77981
G1 X19.883 Y43.718 E2.87662
G1 X19.956 Y46.26 E2.99503
G1 X19.956 Y48.772 E3.112
G1 X19.884 Y51.335 E3.23139
G1 X19.776 Y53.425 E3.32884
G1 X19.751 Y54.546 E3.38105
G1 X19.756 Y60.033 E3.63655
G1 X19.905 Y64.233 E3.83224
G1 X19.91 Y66.694 E3.94684
G1 X19.841 Y69.314 E4.06888
G1 X19.77 Y70.91 E4.14327
G1 X19.751 Y71.946 E4.19152
G1 X19.75 Y77.067 E4.42997
G1 X19.765 Y77.724 E4.46057
G1 X19.886 Y79.056 E4.52285
G1 X20.059 Y79.942 E4.56489
G1 X20.328 Y80.878 E4.61023
G1 X20.677 Y81.787 E4.65557
G1 X21.121 Y82.693 E4.70255
G1 X21.608 Y83.495 E4.74624
G1 X22.184 Y84.28 E4.79158
G1 X22.902 Y85.171 E4.84487
G1 X24.575 Y87.304 E4.97109
G1 X26.065 Y89.32 E5.08782
G1 X27.506 Y91.389 E5.20523
G1 X28.866 Y93.466 E5.32083
G1 X30.202 Y95.637 E5.43953
G1 X31.466 Y97.829 E5.55735
G1 X32.657 Y100.031 E5.67392
G1 X33.776 Y102.253 E5.78977
G1 X34.847 Y104.539 E5.90732
G1 X35.874 Y106.898 E6.02712
G1 X36.798 Y109.195 E6.14241
G1 X37.663 Y111.543 E6.25892
G1 X38.488 Y113.988 E6.37908
G1 X39.212 Y116.348 E6.49403
G1 X39.88 Y118.781 E6.61151
G1 X40.477 Y121.22 E6.72843
G1 X41.013 Y123.703 E6.84671
G1 X41.469 Y126.157 E6.96294
G1 X41.856 Y128.62 E7.07903
G1 X42.184 Y131.183 E7.19935
G1 X42.429 Y133.65 E7.31479
G1 X42.604 Y136.13 E7.43056
G1 X42.713 Y138.676 E7.54922
G1 X42.75 Y141.27 E7.67002
G1 X42.75 Y175.688 E9.27266
G1 X42.763 Y176.295 E9.30093
G1 X42.86 Y177.475 E9.35606
G1 X43.037 Y178.442 E9.40184
G1 X43.296 Y179.382 E9.44724
G1 X43.637 Y180.294 E9.49258
G1 X44.089 Y181.235 E9.54119
G1 X44.552 Y182.011 E9.58327
G1 X45.121 Y182.801 E9.6286
G1 X45.757 Y183.538 E9.67393
G1 X46.455 Y184.216 E9.71924
G1 X47.212 Y184.83 E9.76463
G1 X48.449 Y185.742 E9.83619
G1 X50.472 Y187.279 E9.95449
G1 X52.404 Y188.837 E10.07006
G1 X54.343 Y190.492 E10.18877
G1 X56.218 Y192.187 E10.30646
G1 X58.034 Y193.924 E10.42347
G1 X59.799 Y195.713 E10.5405
G1 X61.495 Y197.53 E10.65623
G1 X63.203 Y199.467 E10.77648
G1 X64.795 Y201.376 E10.89223
G1 X66.342 Y203.344 E11.00879
G1 X67.841 Y205.372 E11.12622
G1 X69.287 Y207.439 E11.24368
G1 X70.679 Y209.558 E11.36174
G1 X71.985 Y211.672 E11.47744
G1 X73.24 Y213.842 E11.59417
G1 X74.452 Y216.081 E11.71272
G1 X75.598 Y218.347 E11.83096
G1 X76.643 Y220.568 E11.94526
G1 X77.669 Y222.918 E12.06466
G1 X78.562 Y225.121 E12.17534
G1 X79.069 Y226.199 E12.23082
G1 X79.551 Y227.009 E12.2747
G1 X80.118 Y227.799 E12.31998
G1 X80.754 Y228.537 E12.36535
G1 X81.455 Y229.215 E12.41076
G1 X82.21 Y229.828 E12.45604
G1 X82.465 Y230 E12.47037
G0 F6000 X83.179 Y230
G1 F1200 X82.462 Y229.517 E12.51062
G1 X81.733 Y228.927 E12.55429
G1 X81.057 Y228.275 E12.59802
G1 X80.443 Y227.565 E12.64173
G1 X79.895 Y226.804 E12.6854
G1 X79.413 Y225.994 E12.72929
G1 X78.933 Y224.971 E12.78191
G1 X78.04 Y222.768 E12.8926
G1 X77.01 Y220.408 E13.0125
G1 X75.955 Y218.166 E13.12788
G1 X74.809 Y215.9 E13.24612
G1 X73.592 Y213.652 E13.36515
G1 X72.331 Y211.472 E13.48242
G1 X71.013 Y209.338 E13.59921
G1 X69.621 Y207.219 E13.71726
G1 X68.163 Y205.134 E13.83573
G1 X66.663 Y203.106 E13.95319
G1 X65.102 Y201.12 E14.07081
G1 X63.503 Y199.202 E14.18709
G1 X61.795 Y197.265 E14.30734
G1 X60.084 Y195.432 E14.4241
G1 X58.319 Y193.643 E14.54112
G1 X56.486 Y191.89 E14.65922
G1 X54.611 Y190.195 E14.77691
G1 X52.664 Y188.533 E14.89611
G1 X50.714 Y186.96 E15.01277
G1 X48.691 Y185.423 E15.13108
G1 X47.463 Y184.519 E15.20208
G1 X46.733 Y183.929 E15.24579
G1 X46.059 Y183.276 E15.28948
G1 X45.445 Y182.567 E15.33316
G1 X44.896 Y181.806 E15.37685
G1 X44.433 Y181.03 E15.41893
G1 X44.011 Y180.153 E15.46425
G1 X43.681 Y179.275 E15.50792
G1 X43.43 Y178.37 E15.55165
G1 X43.259 Y177.442 E15.59559
G1 X43.163 Y176.286 E15.64961
G1 X43.15 Y175.679 E15.67788
G1 X43.15 Y141.27 E17.28011
G1 X43.113 Y138.67 E17.40118
G1 X43.004 Y136.113 E17.52036
G1 X42.828 Y133.622 E17.63664
G1 X42.581 Y131.132 E17.75315
G1 X42.253 Y128.569 E17.87347
G1 X41.864 Y126.095 E17.99008
G1 X41.406 Y123.63 E18.10683
G1 X40.866 Y121.125 E18.22615
G1 X40.269 Y118.686 E18.34307
G1 X39.597 Y116.242 E18.4611
G1 X38.867 Y113.86 E18.57711
G1 X38.042 Y111.415 E18.69726
G1 X37.173 Y109.057 E18.81428
G1 X36.241 Y106.738 E18.93066
G1 X35.214 Y104.379 E19.05046
G1 X34.138 Y102.083 E19.16853
G1 X33.014 Y99.851 E19.2849
G1 X31.813 Y97.629 E19.40251
G1 X30.549 Y95.437 E19.52033
G1 X29.207 Y93.256 E19.63957
G1 X27.841 Y91.17 E19.75568
G1 X26.387 Y89.082 E19.87416
G1 X24.897 Y87.066 E19.99089
G1 X23.217 Y84.924 E20.11764
G1 X22.506 Y84.043 E20.17036
G1 X21.95 Y83.287 E20.21406
G1 X21.463 Y82.485 E20.25775
G1 X21.05 Y81.643 E20.30142
G1 X20.712 Y80.767 E20.34514
G1 X20.452 Y79.865 E20.38885
G1 X20.279 Y78.979 E20.43089
G1 X20.165 Y77.715 E20.48998
G1 X20.15 Y77.067 E20.52016
G1 X20.151 Y71.953 E20.75829
G1 X20.17 Y70.928 E20.80603
G1 X20.241 Y69.332 E20.88042
G1 X20.31 Y66.704 E21.00283
G1 X20.305 Y64.232 E21.11794
G1 X20.156 Y60.033 E21.31358
G1 X20.151 Y54.555 E21.56866
G1 X20.175 Y53.446 E21.62032
G1 X20.284 Y51.346 E21.71823
G1 X20.356 Y48.783 E21.83762
G1 X20.356 Y46.26 E21.9551
G1 X20.283 Y43.707 E22.07403
G1 X20.173 Y41.631 E22.17083
G1 X20.15 Y40.762 E22.21131
G1 X20.151 Y35.647 E22.44949
G1 X20.169 Y34.641 E22.49634
G1 X20.29 Y32.345 E22.6034
G1 X20.362 Y29.811 E22.72144
G1 X20.362 Y27.289 E22.83888
G1 X20.29 Y24.74 E22.95761
G1 X20.174 Y22.546 E23.05992
G1 X20.15 Y21.671 E23.10068
G1 X20.151 Y16.544 E23.33941
G1 X20.162 Y15.838 E23.37229
G1 X20.218 Y14.9 E23.41605
G1 X20.358 Y13.973 E23.4597
G1 X20.579 Y13.06 E23.50344
G1 X20.867 Y12.204 E23.5455
G1 X21.257 Y11.312 E23.59083
G1 X21.692 Y10.52 E23.6329
G1 X22.234 Y9.712 E23.67821
G1 X22.824 Y8.982 E23.72191
G1 X23.477 Y8.308 E23.76561
G1 X24.186 Y7.694 E23.80928
G1 X24.948 Y7.144 E23.85304
G1 X25.724 Y6.682 E23.8951
G1 X26.601 Y6.26 E23.94042
G1 X27.487 Y5.928 E23.98447
G1 X28.785 Y5.595 E24.04687
G1 X30.958 Y5.183 E24.14986
G1 X33.51 Y4.631 E24.27144
G1 X35.906 Y4.041 E24.38634
G1 X38.36 Y3.363 E24.50489
G1 X40.788 Y2.617 E24.62316
G1 X43.166 Y1.812 E24.74006
G1 X45.565 Y0.924 E24.85918
G1 X47.858 Y0.00 E24.97429
G0 F6000 X48.865 Y0.00
G1 F1200 X48.06 Y0.35 E25.01517
G1 X45.704 Y1.299 E25.13344
G1 X43.294 Y2.191 E25.2531
G1 X40.916 Y2.996 E25.37
G1 X38.467 Y3.748 E25.48929
G1 X36.013 Y4.426 E25.60784
G1 X33.595 Y5.022 E25.7238
G1 X31.043 Y5.574 E25.84538
G1 X28.859 Y5.988 E25.94889
G1 X27.587 Y6.315 E26.01004
G1 X26.742 Y6.634 E26.0521
G1 X25.929 Y7.026 E26.09413
G1 X25.153 Y7.488 E26.13618
G1 X24.421 Y8.018 E26.17826
G1 X23.739 Y8.61 E26.22031
G1 X23.112 Y9.26 E26.26237
G1 X22.545 Y9.963 E26.30442
G1 X22.043 Y10.713 E26.34645
G1 X21.608 Y11.505 E26.38852
G1 X21.246 Y12.332 E26.43056
G1 X20.958 Y13.188 E26.47261
G1 X20.747 Y14.066 E26.51466
G1 X20.614 Y14.959 E26.5567
G1 X20.561 Y15.861 E26.59877
G1 X20.551 Y16.55 E26.63086
G1 X20.55 Y21.671 E26.86931
G1 X20.574 Y22.535 E26.90956
G1 X20.69 Y24.729 E27.01187
G1 X20.762 Y27.289 E27.13112
G1 X20.762 Y29.822 E27.24906
G1 X20.69 Y32.356 E27.36711
G1 X20.6 Y33.949 E27.4414
G1 X20.569 Y34.658 E27.47445
G1 X20.551 Y35.654 E27.52083
G1 X20.55 Y40.762 E27.75868
G1 X20.573 Y41.62 E27.79865
G1 X20.683 Y43.696 E27.89545
G1 X20.756 Y46.26 E28.01489
G1 X20.756 Y48.794 E28.13288
G1 X20.684 Y51.357 E28.25228
G1 X20.574 Y53.467 E28.35066
G1 X20.551 Y54.563 E28.4017
G1 X20.556 Y60.033 E28.65641
G1 X20.705 Y64.231 E28.85201
G1 X20.71 Y66.714 E28.96763
G1 X20.641 Y69.35 E29.09041
G1 X20.57 Y70.946 E29.1648
G1 X20.551 Y71.96 E29.21203
G1 X20.55 Y77.067 E29.44983
G1 X20.565 Y77.706 E29.47959
G1 X20.672 Y78.902 E29.53551
G1 X20.845 Y79.788 E29.57754
G1 X21.096 Y80.656 E29.61962
G1 X21.423 Y81.498 E29.66168
G1 X21.822 Y82.308 E29.70372
G1 X22.292 Y83.079 E29.74577
G1 X22.828 Y83.806 E29.78783
G1 X23.532 Y84.677 E29.83997
G1 X25.219 Y86.828 E29.96726
G1 X26.709 Y88.844 E30.08399
G1 X28.176 Y90.951 E30.20354
G1 X29.548 Y93.046 E30.32015
G1 X30.896 Y95.237 E30.43994
G1 X32.16 Y97.429 E30.55776
G1 X33.371 Y99.671 E30.67641
G1 X34.5 Y101.913 E30.7933
G1 X35.581 Y104.219 E30.91189
G1 X36.608 Y106.578 E31.03169
G1 X37.548 Y108.919 E31.14916
G1 X38.421 Y111.287 E31.26668
G1 X39.246 Y113.732 E31.38683
G1 X39.982 Y116.136 E31.5039
G1 X40.658 Y118.591 E31.62247
G1 X41.255 Y121.03 E31.73939
G1 X41.799 Y123.557 E31.85976
G1 X42.259 Y126.033 E31.97702
G1 X42.65 Y128.518 E32.09416
G1 X42.978 Y131.081 E32.21448
G1 X43.227 Y133.594 E32.33206
G1 X43.404 Y136.096 E32.44886
G1 X43.513 Y138.664 E32.56854
G1 X43.55 Y141.27 E32.6899
G1 X43.55 Y175.67 E34.29171
G1 X43.563 Y176.277 E34.31998
G1 X43.658 Y177.409 E34.37288
G1 X43.823 Y178.297 E34.41493
G1 X44.066 Y179.167 E34.457
G1 X44.385 Y180.012 E34.49905
G1 X44.777 Y180.825 E34.54108
G1 X45.24 Y181.601 E34.58316
G1 X45.769 Y182.332 E34.62517
G1 X46.361 Y183.014 E34.66723
G1 X47.011 Y183.641 E34.70928
G1 X47.714 Y184.208 E34.75133
G1 X48.933 Y185.105 E34.82181
G1 X50.965 Y186.649 E34.94064
G1 X52.924 Y188.229 E35.05783
G1 X54.879 Y189.898 E35.17753
G1 X56.754 Y191.593 E35.29522
G1 X58.604 Y193.362 E35.41441
G1 X60.369 Y195.151 E35.53143
G1 X62.095 Y197 E35.64921
G1 X63.803 Y198.937 E35.76946
G1 X65.416 Y200.873 E35.8868
G1 X66.984 Y202.868 E36.00495
G1 X68.485 Y204.896 E36.12244
G1 X69.955 Y206.999 E36.24191
G1 X71.347 Y209.118 E36.35997
G1 X72.677 Y211.272 E36.47785
G1 X73.944 Y213.462 E36.59566
G1 X75.166 Y215.719 E36.71517
G1 X76.312 Y217.985 E36.83341
G1 X77.377 Y220.248 E36.94987
G1 X78.411 Y222.618 E37.07027
G1 X79.304 Y224.821 E37.18096
G1 X79.775 Y225.824 E37.23256
G1 X80.238 Y226.599 E37.27459
G1 X80.767 Y227.331 E37.31665
G1 X81.359 Y228.013 E37.3587
G1 X82.01 Y228.639 E37.40076
G1 X82.713 Y229.206 E37.44281
G1 X83.463 Y229.709 E37.48486
G1 X83.994 Y230 E37.51306
G1 F1500 E33.51306
G0 F6000 X205.538 Y230
G1 F1500 E37.51306
G1 F1200 X206.067 Y229.617 E37.54347
G1 X206.856 Y228.929 E37.59221
G1 X207.481 Y228.278 E37.63423
G1 X208.114 Y227.493 E37.68119
G1 X208.636 Y226.712 E37.72493
G1 X209.104 Y225.86 E37.77019
G1 X209.496 Y224.969 E37.81552
G1 X209.807 Y224.045 E37.86092
G1 X210.036 Y223.099 E37.90624
G1 X210.181 Y222.136 E37.95159
G1 X210.238 Y221.163 E37.99697
G1 X210.249 Y220.4 E38.0325
G1 X210.25 Y125.33 E42.45936
G1 X210.235 Y124.673 E42.48996
G1 X210.2 Y124.079 E42.51767
G1 X209.967 Y121.233 E42.65063
G1 X209.824 Y118.723 E42.7677
G1 X209.753 Y116.229 E42.88388
G1 X209.753 Y113.718 E43.0008
G1 X209.825 Y111.175 E43.11926
G1 X209.963 Y108.689 E43.2352
G1 X210.2 Y105.951 E43.36317
G1 X210.237 Y105.209 E43.39776
G1 X210.249 Y104.462 E43.43255
G1 X210.25 Y9.33 E47.86229
G1 X210.235 Y8.655 E47.89373
G1 X210.14 Y7.525 E47.94653
G1 X209.963 Y6.559 E47.99226
G1 X209.694 Y5.587 E48.03923
G1 X209.365 Y4.709 E48.08289
G1 X208.911 Y3.767 E48.13158
G1 X208.449 Y2.991 E48.17363
G1 X207.879 Y2.201 E48.21899
G1 X207.243 Y1.464 E48.26432
G1 X206.545 Y0.786 E48.30963
G1 X205.73 Y0.128 E48.35841
G1 X205.538 Y0.00 E48.36915
G0 F6000 X204.818 Y0.00
G1 F1200 X205.508 Y0.461 E48.40779
G1 X206.267 Y1.073 E48.45319
G1 X206.941 Y1.726 E48.49689
G1 X207.555 Y2.435 E48.54056
G1 X208.105 Y3.196 E48.58428
G1 X208.567 Y3.972 E48.62634
G1 X208.99 Y4.849 E48.67168
G1 X209.319 Y5.727 E48.71534
G1 X209.57 Y6.632 E48.75907
G1 X209.741 Y7.559 E48.80296
G1 X209.836 Y8.689 E48.85576
G1 X209.85 Y9.33 E48.88562
G1 X209.849 Y104.455 E53.31504
G1 X209.837 Y105.189 E53.34922
G1 X209.801 Y105.917 E53.38316
G1 X209.565 Y108.655 E53.51112
G1 X209.425 Y111.164 E53.62814
G1 X209.353 Y113.707 E53.7466
G1 X209.353 Y116.229 E53.86403
G1 X209.424 Y118.734 E53.98072
G1 X209.568 Y121.267 E54.09886
G1 X209.691 Y122.728 E54.16713
G1 X209.697 Y122.882 E54.17431
G1 X209.801 Y124.102 E54.23132
G1 X209.835 Y124.682 E54.25837
G1 X209.85 Y125.33 E54.28856
G1 X209.849 Y220.395 E58.71518
G1 X209.839 Y221.14 E58.74987
G1 X209.785 Y222.077 E58.79358
G1 X209.647 Y223.006 E58.83731
G1 X209.428 Y223.918 E58.88098
G1 X209.13 Y224.808 E58.92469
G1 X208.753 Y225.668 E58.96841
G1 X208.303 Y226.49 E59.01205
G1 X207.781 Y227.271 E59.05579
G1 X207.192 Y228.001 E59.09946
G1 X206.567 Y228.652 E59.14149
G1 X205.832 Y229.293 E59.1869
G1 X205.072 Y229.843 E59.23058
G1 X204.809 Y230 E59.24484
G0 F6000 X204.018 Y230
G1 F1200 X204.092 Y229.964 E59.24868
G1 X204.866 Y229.5 E59.2907
G1 X205.597 Y228.969 E59.33277
G1 X206.278 Y228.375 E59.37485
G1 X206.903 Y227.724 E59.41687
G1 X207.469 Y227.02 E59.45893
G1 X207.97 Y226.268 E59.50101
G1 X208.402 Y225.476 E59.54301
G1 X208.763 Y224.648 E59.58507
G1 X209.049 Y223.791 E59.62714
G1 X209.258 Y222.913 E59.66917
G1 X209.389 Y222.019 E59.71124
G1 X209.44 Y221.117 E59.75331
G1 X209.449 Y220.39 E59.78717
G1 X209.45 Y125.33 E64.21356
G1 X209.435 Y124.691 E64.24332
G1 X209.402 Y124.125 E64.26972
G1 X209.298 Y122.916 E64.32622
G1 X209.291 Y122.744 E64.33424
G1 X209.169 Y121.301 E64.40167
G1 X209.024 Y118.745 E64.52088
G1 X208.953 Y116.229 E64.63808
G1 X208.953 Y113.696 E64.75603
G1 X209.025 Y111.153 E64.87449
G1 X209.167 Y108.621 E64.99258
G1 X209.402 Y105.883 E65.12054
G1 X209.438 Y105.169 E65.15383
G1 X209.449 Y104.449 E65.18736
G1 X209.45 Y9.33 E69.6165
G1 X209.437 Y8.723 E69.64477
G1 X209.342 Y7.593 E69.69757
G1 X209.177 Y6.705 E69.73963
G1 X208.934 Y5.835 E69.78169
G1 X208.616 Y4.99 E69.82373
G1 X208.223 Y4.177 E69.86578
G1 X207.761 Y3.401 E69.90783
G1 X207.231 Y2.67 E69.94987
G1 X206.639 Y1.988 E69.99192
G1 X205.989 Y1.361 E70.03398
G1 X205.286 Y0.794 E70.07603
G1 X204.535 Y0.292 E70.1181
G1 X204.003 Y0.00 E70.14635
G1 F1500 E66.14635
;MESH:PackageESDP.stl
G0 F6000 X189.311 Y38.222
G0 X159.221 Y69.6
;TYPE:WALL-INNER
G1 F1500 E70.14635
G1 F1200 X159.069 Y69.573 E70.15354
G1 X158.78 Y69.377 E70.1698
G1 X158.649 Y69.047 E70.18634
G1 X158.648 Y38.969 E71.58689
G1 X158.766 Y38.641 E71.60312
G1 X158.926 Y38.493 E71.61327
G1 X159.216 Y38.4 E71.62745
G1 X189.296 Y38.401 E73.0281
G1 X189.519 Y38.464 E73.0389
G1 X189.745 Y38.662 E73.05289
G1 X189.842 Y38.908 E73.0652
G1 X189.848 Y69.067 E74.46953
G1 X189.745 Y69.338 E74.48303
G1 X189.579 Y69.501 E74.49386
